X:1
T:Nun Lasst Uns Gott dem Herren, 77.77
T:Nun Lasst Uns Gott dem Herren, 77.77
T:Nikolaus Selnecker, 1587
T:Public Domain Courtesy of the Cyber Hymnal™
C:Nikolaus Selnecker, 1587
Z:Public Domain
Z:Courtesy of the Cyber Hymnal™
%%score ( 1 2 ) ( 3 4 )
L:1/8
Q:1/4=110
M:3/4
K:A
V:1 treble 
V:2 treble 
V:3 bass 
V:4 bass 
V:1
 [EA] | [EA]2 [EG] (F G)[EA] | [EB]3 [CA]2 [CA] | [EA]2 [FB] (G F)[B,E] | A3 [EG]2 [^EG] | %5
 [FA]2 [FA] [DB]2 [Cc] | B3 [EB]2 [Gc] | [Ad]2 [Ac] [FB]2 A | B3 !fermata![CA]2 |] %9
V:2
 x | x3 D2 x | x6 | x3 E2 x | (C2 ^D) x3 | x6 | (^D>C D) x3 | x5 A | (E2 D) x2 |] %9
V:3
 [A,,C] | [A,,C]2 [C,C] [D,A,]2 [C,A,] | (A,2 G,) [A,,A,]2 [A,,A,] | %3
 [C,A,]2 [^D,F,] [E,B,]2 [G,B,] | [F,A,]3 [G,B,]2 [C,C] | [F,C]2 [D,F,] (F, G,)[A,,A,] | %6
 [B,,A,]3 [E,G,]2 [D,C] | [F,D]2 [A,E] D2 [F,C] | [E,G,]3 !fermata![A,,A,]2 |] %9
V:4
 x | x6 | E,3 x3 | x6 | x6 | x3 B,,2 x | x6 | x3 (D,>E,) x | x5 |] %9

